X:79
T:79 Pendean Dance in Tekile
C:Welch MS
I:abc2nwc
M:6/8
L:1/8
K:D
A|d2d dcd|B2B Bed|cBA ABc|d2f a2A|d2d dcd|B2B Bed|cBA ABc|d3d2:|
f|g2e efe|d2A ABA|a2a aba|f2d d2A|dcd ede|fef gfg|aba agf|f3e2"Fine"|]

